localPackages/DesignSystem/Sources/DesignSystem/Resources/Assets.xcassets/IconSet/ic-backspace.imageset/ic-backspace.svg

<svg width="24" height="24" viewBox="0 0 24 24" fill="none" xmlns="http://www.w3.org/2000/svg">
<g id="ic-backspace">
<path id="Icon" fill-rule="evenodd" clip-rule="evenodd" d="M8.27767 3C7.07791 3 5.95058 3.57407 5.24491 4.54436L0.143448 11.5589C-0.047816 11.8219 -0.047816 12.1781 0.143448 12.4411L5.24491 19.4556C5.95058 20.4259 7.07791 21 8.27767 21H23.25C23.6642 21 24 20.6642 24 20.25V3.75C24 3.33579 23.6642 3 23.25 3H8.27767ZM6.45802 5.42661C6.88142 4.84444 7.55782 4.5 8.27767 4.5H22.5V19.5H8.27767C7.55782 19.5 6.88142 19.1556 6.45802 18.5734L1.67737 12L6.45802 5.42661ZM11.7803 8.46967C11.4874 8.17678 11.0126 8.17678 10.7197 8.46967C10.4268 8.76256 10.4268 9.23744 10.7197 9.53033L13.1893 12L10.7197 14.4697C10.4268 14.7626 10.4268 15.2374 10.7197 15.5303C11.0126 15.8232 11.4874 15.8232 11.7803 15.5303L14.25 13.0607L16.7197 15.5303C17.0126 15.8232 17.4874 15.8232 17.7803 15.5303C18.0732 15.2374 18.0732 14.7626 17.7803 14.4697L15.3107 12L17.7803 9.53033C18.0732 9.23744 18.0732 8.76256 17.7803 8.46967C17.4874 8.17678 17.0126 8.17678 16.7197 8.46967L14.25 10.9393L11.7803 8.46967Z" fill="#0F0F0F"/>
</g>
</svg>

<svg xmlns="http://www.w3.org/2000/svg" width="24" height="24" viewBox="0 0 24 24">
  <g class="ic-backspace">
    <path fill-rule="evenodd" d="M8.278 3a3.75 3.75 0 0 0-3.033 1.544L.143 11.56a.75.75 0 0 0 0 .882l5.102 7.015A3.75 3.75 0 0 0 8.278 21H23.25a.75.75 0 0 0 .75-.75V3.75a.75.75 0 0 0-.75-.75H8.278Zm-1.82 2.427a2.25 2.25 0 0 1 1.82-.927H22.5v15H8.278a2.25 2.25 0 0 1-1.82-.927L1.678 12l4.78-6.573ZM11.78 8.47a.75.75 0 1 0-1.06 1.06L13.19 12l-2.47 2.47a.75.75 0 1 0 1.06 1.06l2.47-2.47 2.47 2.47a.75.75 0 1 0 1.06-1.06L15.31 12l2.47-2.47a.75.75 0 0 0-1.06-1.06l-2.47 2.47-2.47-2.47Z" class="Icon"/>
  </g>
</svg>
